assets/icon/onboarding_2_dark.svg

<svg fill="none" height="432" viewBox="0 0 327 432" width="327" xmlns="http://www.w3.org/2000/svg"><g stroke-width="2"><circle cx="163.5" cy="251.008" fill="#101029" r="129.939" stroke="#e8e8eb" transform="matrix(-.2923717 -.95630476 .95630476 -.2923717 -28.73737 480.751464)"/><path d="m126.76 155.623c-54.0351 16.521-84.57 73.316-68.2013 126.856" stroke="#e8e8eb"/><circle cx="271.33" cy="110.638" fill="#101029" r="28.2301" stroke="#e8e8eb" transform="matrix(-.2923717 -.95630476 .95630476 -.2923717 244.855569 402.45959)"/><path d="m265.622 89.3455c-12.063 3.6879-18.88 16.3665-15.225 28.3185" stroke="#e8e8eb"/><circle cx="202.995" cy="48.5955" fill="#101029" r="37.4737" stroke="#e8e8eb" transform="matrix(-.2923717 -.95630476 .95630476 -.2923717 215.872886 256.928533)"/><path d="m195.482 20.568c-15.878 4.8541-24.85 21.5422-20.04 37.2738" stroke="#e8e8eb"/><circle cx="57.7491" cy="399.301" fill="#101029" r="25.0554" stroke="#e8e8eb" transform="matrix(-.2923717 -.95630476 .95630476 -.2923717 -307.220143 571.271053)"/><path d="m52.6609 380.324c-10.7524 3.287-16.8286 14.589-13.5714 25.242" stroke="#e8e8eb"/><path d="m181.73 287.512h19.262 19.326v9.756 16.773l-4.824 4.824h-28.941l-4.823-4.824z" fill="#101029" stroke="#fff" stroke-linecap="round"/><path d="m190.172 287.506.079-7.299c.063-5.907 4.869-10.662 10.777-10.662 5.992 0 10.85 4.858 10.85 10.851v7.11" stroke="#fff" stroke-linecap="square" stroke-linejoin="round"/><path d="m201.029 305.049v-4.604" stroke="#fff" stroke-linecap="square" stroke-linejoin="round"/></g><path d="m121.181 301.289v-84.485h105.862v-12.215h-72.271l-9.161-9.161h-36.645v105.861z" fill="#101029"/><path d="m220.714 301.289h15.49v-84.485h-9.161m-105.862 84.485v-84.485h105.862m-105.862 84.485h60.067m-60.067 0h-12.215v-105.861h36.645l9.161 9.161h72.271v12.215" stroke="#fff" stroke-linecap="square" stroke-linejoin="round" stroke-width="2"/></svg>

<svg width="327" height="432" viewBox="0 0 327 432" fill="none" xmlns="http://www.w3.org/2000/svg">
<circle cx="163.5" cy="251.008" r="129.939" transform="rotate(-107 163.5 251.008)" fill="#101029" stroke="#E8E8EB" stroke-width="2"/>
<path d="M126.76 155.623C72.7249 172.144 42.19 228.939 58.5587 282.479" stroke="#E8E8EB" stroke-width="2"/>
<circle cx="271.33" cy="110.638" r="28.2301" transform="rotate(-107 271.33 110.638)" fill="#101029" stroke="#E8E8EB" stroke-width="2"/>
<path d="M265.622 89.3455C253.559 93.0334 246.742 105.712 250.397 117.664" stroke="#E8E8EB" stroke-width="2"/>
<circle cx="202.995" cy="48.5955" r="37.4737" transform="rotate(-107 202.995 48.5955)" fill="#101029" stroke="#E8E8EB" stroke-width="2"/>
<path d="M195.482 20.568C179.604 25.4221 170.632 42.1102 175.442 57.8418" stroke="#E8E8EB" stroke-width="2"/>
<circle cx="57.7491" cy="399.301" r="25.0554" transform="rotate(-107 57.7491 399.301)" fill="#101029" stroke="#E8E8EB" stroke-width="2"/>
<path d="M52.6609 380.324C41.9085 383.611 35.8323 394.913 39.0895 405.566" stroke="#E8E8EB" stroke-width="2"/>
<path d="M181.73 287.512H200.992H220.318V297.268V314.041L215.494 318.865H186.553L181.73 314.041V287.512Z" fill="#101029" stroke="white" stroke-width="2" stroke-linecap="round"/>
<path d="M190.172 287.506L190.251 280.207C190.314 274.3 195.12 269.545 201.028 269.545V269.545V269.545C207.02 269.545 211.878 274.403 211.878 280.396V287.506" stroke="white" stroke-width="2" stroke-linecap="square" stroke-linejoin="round"/>
<path d="M201.029 305.049V300.445" stroke="white" stroke-width="2" stroke-linecap="square" stroke-linejoin="round"/>
<path d="M121.181 301.289V216.804H227.043V204.589H154.772L145.611 195.428H108.966V301.289H121.181Z" fill="#101029"/>
<path d="M220.714 301.289H236.204V216.804H227.043M121.181 301.289V216.804H227.043M121.181 301.289H181.248M121.181 301.289H108.966V195.428H145.611L154.772 204.589H227.043V216.804" stroke="white" stroke-width="2" stroke-linecap="square" stroke-linejoin="round"/>
</svg>
